flaticon/weather/clouds-and-sun.svg

<svg xmlns="http://www.w3.org/2000/svg" width="32" height="32" viewBox="0 0 24 24">
    <path d="M13.75 8.285156C13.453125 8.101562 13.132812 7.972656 12.800781 7.894531 12.804688 7.78125 12.8125 7.667969 12.824219 7.558594 12.832031 7.519531 12.835938 7.484375 12.84375 7.445312 12.867188 7.304688 12.894531 7.160156 12.933594 7.019531 12.9375 7.003906 12.941406 6.992188 12.945312 6.976562 12.992188 6.8125 13.054688 6.648438 13.125 6.492188 13.125 6.488281 13.128906 6.480469 13.132812 6.476562 13.203125 6.324219 13.28125 6.175781 13.371094 6.03125 13.386719 6.007812 13.398438 5.988281 13.410156 5.964844L13.449219 5.90625C14.132812 4.902344 15.289062 4.238281 16.59375 4.238281 18.632812 4.238281 20.296875 5.855469 20.386719 7.871094 18.816406 8.074219 17.59375 9.417969 17.59375 11.046875 17.59375 11.265625 17.773438 11.445312 17.996094 11.445312 18.214844 11.445312 18.394531 11.265625 18.394531 11.046875 18.394531 9.722656 19.472656 8.644531 20.796875 8.644531 22.121094 8.644531 23.199219 9.722656 23.199219 11.046875 23.199219 11.265625 23.378906 11.445312 23.597656 11.445312 23.820312 11.445312 24 11.265625 24 11.046875 24 9.414062 22.769531 8.0625 21.1875 7.871094 21.097656 5.410156 19.074219 3.4375 16.59375 3.4375 15.171875 3.4375 13.898438 4.085938 13.054688 5.101562 11.9375 3.601562 10.210938 2.722656 8.316406 2.722656 5.050781 2.722656 2.394531 5.378906 2.394531 8.644531 2.394531 10.1875 2.988281 11.621094 4.039062 12.714844 2.675781 12.882812 1.421875 13.65625.667969 14.894531-.648438 17.066406.0429688 19.902344 2.210938 21.21875 2.277344 21.261719 2.347656 21.277344 2.417969 21.277344 2.554688 21.277344 2.6875 21.210938 2.761719 21.085938 2.875 20.898438 2.816406 20.652344 2.628906 20.535156.835938 19.449219.265625 17.105469 1.351562 15.3125 2.230469 13.863281 3.933594 13.183594 5.550781 13.605469 5.734375 14.195312 6.082031 14.71875 6.570312 15.117188 6.644531 15.179688 6.734375 15.210938 6.824219 15.210938 6.941406 15.210938 7.054688 15.160156 7.132812 15.066406 7.273438 14.894531 7.25 14.640625 7.078125 14.5 6.683594 14.175781 6.410156 13.742188 6.285156 13.253906 6.285156 13.234375 6.273438 13.21875 6.269531 13.199219 6.269531 13.195312 6.269531 13.195312 6.269531 13.191406L6.261719 13.164062C6.203125 12.894531 6.191406 12.621094 6.222656 12.359375 6.222656 12.347656 6.226562 12.335938 6.226562 12.324219 6.238281 12.25 6.25 12.179688 6.265625 12.109375 6.273438 12.085938 6.277344 12.066406 6.28125 12.046875 6.296875 11.984375 6.316406 11.925781 6.335938 11.863281 6.34375 11.839844 6.355469 11.816406 6.363281 11.792969 6.382812 11.738281 6.40625 11.679688 6.433594 11.625 6.445312 11.601562 6.457031 11.578125 6.46875 11.554688 6.496094 11.5 6.527344 11.445312 6.5625 11.394531 6.574219 11.371094 6.585938 11.351562 6.597656 11.328125 6.644531 11.257812 6.695312 11.1875 6.753906 11.121094 6.9375 10.894531 7.15625 10.714844 7.398438 10.574219 7.863281 10.304688 8.40625 10.191406 8.949219 10.269531 8.835938 10.75 8.832031 11.25 8.945312 11.742188 8.988281 11.925781 9.152344 12.050781 9.335938 12.050781 9.367188 12.050781 9.398438 12.046875 9.429688 12.039062 9.644531 11.988281 9.777344 11.773438 9.726562 11.558594 9.617188 11.097656 9.648438 10.625 9.804688 10.191406L9.832031 10.125C9.867188 10.039062 9.90625 9.957031 9.949219 9.875 9.953125 9.863281 9.960938 9.851562 9.96875 9.839844 9.996094 9.789062 10.027344 9.742188 10.0625 9.691406 10.132812 9.585938 10.207031 9.480469 10.292969 9.386719 10.316406 9.363281 10.34375 9.339844 10.367188 9.3125 10.441406 9.242188 10.515625 9.175781 10.597656 9.113281 10.632812 9.085938 10.664062 9.058594 10.699219 9.035156 10.800781 8.964844 10.910156 8.902344 11.023438 8.847656 11.054688 8.832031 11.089844 8.816406 11.121094 8.804688 11.25 8.75 11.378906 8.703125 11.515625 8.671875 11.648438 8.640625 11.785156 8.621094 11.921875 8.613281 11.925781 8.613281 11.925781 8.613281 11.929688 8.613281 12.066406 8.605469 12.210938 8.609375 12.351562 8.625L12.472656 8.640625C12.773438 8.691406 13.0625 8.800781 13.328125 8.964844 13.875 9.304688 14.253906 9.832031 14.402344 10.457031 14.453125 10.671875 14.667969 10.808594 14.882812 10.757812 15.097656 10.707031 15.230469 10.492188 15.183594 10.273438 14.984375 9.441406 14.476562 8.734375 13.75 8.285156zM8.316406 3.523438C10.046875 3.523438 11.617188 4.371094 12.574219 5.804688 12.40625 6.101562 12.273438 6.417969 12.175781 6.75 12.167969 6.785156 12.160156 6.816406 12.152344 6.847656 12.121094 6.972656 12.089844 7.097656 12.066406 7.222656 12.058594 7.28125 12.050781 7.335938 12.042969 7.390625 12.027344 7.496094 12.015625 7.601562 12.007812 7.707031 12.003906 7.742188 11.996094 7.773438 11.996094 7.808594 11.886719 7.808594 11.78125 7.816406 11.671875 7.832031 11.667969 7.832031 11.664062 7.832031 11.660156 7.832031 11.550781 7.847656 11.441406 7.867188 11.332031 7.890625 11.222656 7.917969 11.113281 7.949219 11.007812 7.984375 10.992188 7.992188 10.972656 8 10.957031 8.007812 10.867188 8.039062 10.777344 8.074219 10.691406 8.117188 10.679688 8.121094 10.667969 8.128906 10.65625 8.132812 10.566406 8.175781 10.480469 8.226562 10.394531 8.277344 10.386719 8.28125 10.378906 8.289062 10.371094 8.292969 10.285156 8.347656 10.199219 8.40625 10.113281 8.46875 10.109375 8.472656 10.101562 8.480469 10.097656 8.484375 10.015625 8.546875 9.9375 8.613281 9.863281 8.683594 9.855469 8.691406 9.847656 8.703125 9.835938 8.710938 9.769531 8.777344 9.703125 8.847656 9.640625 8.921875 9.625 8.933594 9.613281 8.949219 9.601562 8.964844 9.546875 9.03125 9.492188 9.105469 9.441406 9.179688 9.425781 9.199219 9.410156 9.21875 9.398438 9.238281 9.378906 9.269531 9.359375 9.292969 9.339844 9.324219 9.3125 9.371094 9.289062 9.417969 9.261719 9.46875 9.253906 9.480469 9.246094 9.492188 9.238281 9.507812 9.214844 9.5 9.191406 9.5 9.167969 9.496094 9.101562 9.484375 9.035156 9.476562 8.96875 9.46875 8.882812 9.460938 8.796875 9.453125 8.710938 9.449219 8.644531 9.445312 8.578125 9.449219 8.507812 9.449219 8.425781 9.453125 8.34375 9.457031 8.261719 9.464844 8.191406 9.472656 8.125 9.480469 8.058594 9.492188 7.976562 9.507812 7.898438 9.527344 7.816406 9.546875 7.753906 9.5625 7.6875 9.578125 7.621094 9.601562 7.542969 9.625 7.464844 9.65625 7.390625 9.6875 7.328125 9.714844 7.265625 9.738281 7.207031 9.765625 7.128906 9.804688 7.050781 9.851562 6.976562 9.894531 6.921875 9.929688 6.867188 9.957031 6.816406 9.992188 6.734375 10.046875 6.660156 10.109375 6.582031 10.175781 6.539062 10.207031 6.496094 10.238281 6.457031 10.273438 6.34375 10.378906 6.234375 10.488281 6.136719 10.609375 6.070312 10.6875 6.011719 10.769531 5.953125 10.855469 5.933594 10.886719 5.914062 10.917969 5.894531 10.949219 5.863281 11.003906 5.828125 11.054688 5.796875 11.109375 5.777344 11.152344 5.757812 11.191406 5.738281 11.234375 5.714844 11.28125 5.6875 11.328125 5.667969 11.378906 5.648438 11.421875 5.628906 11.46875 5.613281 11.515625 5.597656 11.5625 5.578125 11.605469 5.5625 11.652344 5.546875 11.703125 5.53125 11.753906 5.519531 11.804688 5.507812 11.847656 5.496094 11.890625 5.484375 11.933594 5.472656 11.988281 5.464844 12.042969 5.453125 12.097656 5.445312 12.136719 5.441406 12.179688 5.433594 12.222656 5.425781 12.28125 5.421875 12.335938 5.417969 12.394531 5.414062 12.433594 5.414062 12.472656 5.410156 12.507812 5.410156 12.574219 5.40625 12.636719 5.40625 12.699219 5.40625 12.707031 5.40625 12.714844 5.40625 12.722656 5.335938 12.710938 5.265625 12.699219 5.195312 12.691406 3.921875 11.710938 3.195312 10.242188 3.195312 8.644531 3.195312 5.820312 5.492188 3.523438 8.316406 3.523438zM21.976562 17.882812C21.792969 16.289062 20.4375 15.046875 18.796875 15.046875 17.03125 15.046875 15.59375 16.484375 15.59375 18.25 15.59375 18.472656 15.773438 18.652344 15.992188 18.652344 16.214844 18.652344 16.394531 18.472656 16.394531 18.25 16.394531 16.925781 17.472656 15.847656 18.796875 15.847656 19.996094 15.847656 20.992188 16.738281 21.167969 17.890625 20.046875 18.09375 19.195312 19.074219 19.195312 20.253906 19.195312 20.472656 19.375 20.652344 19.597656 20.652344 19.816406 20.652344 19.996094 20.472656 19.996094 20.253906 19.996094 19.371094 20.714844 18.652344 21.597656 18.652344 22.480469 18.652344 23.199219 19.371094 23.199219 20.253906 23.199219 20.472656 23.378906 20.652344 23.601562 20.652344 23.820312 20.652344 24 20.472656 24 20.253906 24 19.058594 23.121094 18.066406 21.976562 17.882812zM21.976562 17.882812"/>
</svg>

<svg xmlns="http://www.w3.org/2000/svg" width="32" height="32" viewBox="0 0 24 24">
    <path d="M13.75 8.285a3.187 3.187 0 0 0-.95-.39c.005-.114.012-.227.024-.336.008-.04.012-.075.02-.114.023-.14.05-.285.09-.425l.011-.043a3.608 3.608 0 0 1 .188-.5 4.07 4.07 0 0 1 .277-.512l.04-.059a3.806 3.806 0 0 1 3.144-1.668 3.805 3.805 0 0 1 3.793 3.633 3.209 3.209 0 0 0-2.793 3.176.401.401 0 0 0 .8 0 2.406 2.406 0 0 1 2.403-2.402 2.406 2.406 0 0 1 2.402 2.402.4.4 0 0 0 .801 0 3.204 3.204 0 0 0-2.813-3.176 4.603 4.603 0 0 0-4.593-4.434 4.593 4.593 0 0 0-3.54 1.665 5.863 5.863 0 0 0-4.738-2.38 5.928 5.928 0 0 0-5.921 5.923c0 1.543.593 2.976 1.644 4.07a4.598 4.598 0 0 0-3.371 2.18 4.61 4.61 0 0 0 1.543 6.324.372.372 0 0 0 .207.058c.137 0 .27-.066.344-.191a.404.404 0 0 0-.133-.55 3.806 3.806 0 0 1-1.277-5.224 3.782 3.782 0 0 1 4.199-1.707c.183.59.531 1.114 1.02 1.512a.4.4 0 0 0 .508-.617 2.364 2.364 0 0 1-.794-1.246c0-.02-.012-.035-.015-.055v-.008l-.008-.027a2.438 2.438 0 0 1-.04-.805c0-.011.005-.023.005-.035a3.5 3.5 0 0 1 .039-.215c.007-.023.011-.043.015-.062.016-.063.035-.121.055-.184.008-.023.02-.047.027-.07a1.535 1.535 0 0 1 .106-.238c.027-.055.058-.11.093-.16l.036-.067c.047-.07.097-.14.156-.207a2.404 2.404 0 0 1 2.195-.852c-.113.481-.117.981-.004 1.473a.4.4 0 0 0 .782-.183c-.11-.461-.079-.934.078-1.368l.027-.066c.035-.086.074-.168.117-.25.004-.012.012-.023.02-.035.027-.05.058-.098.094-.149.07-.105.144-.21.23-.304.023-.024.05-.047.074-.075a2.81 2.81 0 0 1 .23-.199c.036-.027.067-.054.102-.078a2.415 2.415 0 0 1 1.223-.422h.008a2.55 2.55 0 0 1 .422.012l.12.016a2.392 2.392 0 0 1 1.93 1.816c.051.215.266.352.48.3a.407.407 0 0 0 .302-.484 3.196 3.196 0 0 0-1.434-1.988zM8.316 3.523c1.73 0 3.301.848 4.258 2.282-.168.297-.3.613-.398.945l-.024.098c-.03.125-.062.25-.086.375l-.023.168c-.016.105-.027.21-.035.316-.004.035-.012.066-.012.102-.11 0-.215.007-.324.023h-.012c-.11.016-.219.035-.328.059-.11.027-.219.058-.324.093l-.051.024c-.09.031-.18.066-.266.11-.011.003-.023.01-.035.015-.09.043-.176.094-.261.144-.008.004-.016.012-.024.016a5.028 5.028 0 0 0-.258.176l-.015.015c-.082.063-.16.13-.235.2-.008.007-.015.02-.027.027a3.371 3.371 0 0 0-.195.21c-.016.013-.028.028-.04.044a3.07 3.07 0 0 0-.16.215.559.559 0 0 0-.043.058c-.02.032-.039.055-.058.086-.027.047-.05.094-.078.145a.344.344 0 0 0-.024.039c-.023-.008-.047-.008-.07-.012a3.483 3.483 0 0 0-.2-.027c-.085-.008-.171-.016-.257-.02-.066-.004-.133 0-.203 0-.082.004-.164.008-.246.016-.07.008-.137.015-.203.027-.082.016-.16.035-.243.055-.062.015-.128.031-.195.055a2.324 2.324 0 0 0-.23.085c-.063.028-.125.051-.184.079-.078.039-.156.086-.23.129-.055.035-.11.062-.16.097a2.541 2.541 0 0 0-.235.184 1.53 1.53 0 0 0-.125.097 3.255 3.255 0 0 0-.504.582l-.058.094c-.032.055-.067.106-.098.16-.02.043-.04.082-.059.125-.023.047-.05.094-.07.145-.02.043-.04.09-.055.137-.015.046-.035.09-.05.136-.016.051-.032.102-.043.153l-.036.129c-.011.054-.02.109-.03.164-.009.039-.013.082-.02.125a2.552 2.552 0 0 0-.016.172c-.004.039-.004.078-.008.113 0 .066-.004.129-.004.191v.024c-.07-.012-.14-.024-.21-.032-1.274-.98-2-2.449-2-4.046a5.126 5.126 0 0 1 5.12-5.122zm0 0M21.977 17.883a3.207 3.207 0 0 0-3.18-2.836 3.208 3.208 0 0 0-3.203 3.203.401.401 0 1 0 .8 0 2.406 2.406 0 0 1 2.403-2.402c1.2 0 2.195.89 2.371 2.043a2.404 2.404 0 0 0-1.973 2.363.401.401 0 0 0 .801 0c0-.883.719-1.602 1.602-1.602.882 0 1.601.72 1.601 1.602a.401.401 0 0 0 .801 0 2.407 2.407 0 0 0-2.023-2.371zm0 0"/>
</svg>
